icons/circle-check.svg

<svg width="24" height="24" viewBox="0 0 24 24" fill="none" xmlns="http://www.w3.org/2000/svg">
<path fill-rule="evenodd" clip-rule="evenodd" d="M12 4C7.58172 4 4 7.58172 4 12C4 16.4183 7.58172 20 12 20C16.4183 20 20 16.4183 20 12C20 7.58172 16.4183 4 12 4ZM2 12C2 6.47715 6.47715 2 12 2C17.5228 2 22 6.47715 22 12C22 17.5228 17.5228 22 12 22C6.47715 22 2 17.5228 2 12ZM17.2071 8.29289C17.5976 8.68342 17.5976 9.31658 17.2071 9.70711L11.7071 15.2071C11.3166 15.5976 10.6834 15.5976 10.2929 15.2071L7.29289 12.2071C6.90237 11.8166 6.90237 11.1834 7.29289 10.7929C7.68342 10.4024 8.31658 10.4024 8.70711 10.7929L11 13.0858L15.7929 8.29289C16.1834 7.90237 16.8166 7.90237 17.2071 8.29289Z" fill="black"/>
</svg>

<svg
  width="24"
  height="24"
  viewBox="0 0 24 24"
  xmlns="http://www.w3.org/2000/svg"
>
  <path
    fill-rule="evenodd"
    clip-rule="evenodd"
    d="M12 4a8 8 0 1 0 0 16 8 8 0 0 0 0-16zM2 12C2 6.477 6.477 2 12 2s10 4.477 10 10-4.477 10-10 10S2 17.523 2 12zm15.207-3.707a1 1 0 0 1 0 1.414l-5.5 5.5a1 1 0 0 1-1.414 0l-3-3a1 1 0 1 1 1.414-1.414L11 13.086l4.793-4.793a1 1 0 0 1 1.414 0z"
  />
</svg>
